packages/web-icons/svgs/beta_1.svg

<svg viewBox="0 0 94 36" xmlns="http://www.w3.org/2000/svg" class="ridi_icon"><path d="M29.2 19.5h-2.7l-.8 3.7h2.7c.6 0 1-.2 1.4-.4.6-.4 1.2-1.2 1.2-1.9s-.6-1.4-1.8-1.4zM76.8 13s-.8 1.9-1.4 3.1l-1.7 3.5h3.7l-.4-3.5c-.2-1-.2-3.1-.2-3.1zm-46.6-.2h-2.3l-.6 3.3h2.3c1.4 0 1.9-1 1.9-1.9 0-.9-.4-1.4-1.3-1.4z"/><path d="M90.4 0h-77c-1.5 0-3.1 1.4-3.1 2.9v8.9L.6 18l9.7 6v8.9c0 1.7 1.4 3.1 3.1 3.1h77c1.7 0 3.1-1.4 3.1-3.1v-30c0-1.5-1.4-2.9-3.1-2.9zM35.6 21.1c0 2.9-1.9 4.8-4.5 5.6-1 .4-1.9.4-2.9.4h-7.7l3.7-18.2H30c1.2 0 2.3.2 3.3.4 1.9.6 2.9 2.1 2.9 3.9 0 1.8-1 3.5-2.9 4.3 1.5.7 2.3 2 2.3 3.6zm15.9-8.3h-7.2l-.6 3.3h5.6l-.8 3.9h-5.6l-.6 3.5h7.4l-.8 3.9h-12l3.7-18.3h11.6l-.7 3.7zm8.9 14.3h-4.5l2.9-14.3h-5.6l.8-3.9h15.7l-.8 3.9h-5.6l-2.9 14.3zm17.6 0l-.4-3.9h-5.8l-1.9 3.9H65l9.7-18.2h5.2l2.5 18.2H78z"/></svg>

<?xml version="1.0" encoding="UTF-8"?>
<svg width="94px" height="36px" viewBox="0 0 94 36" version="1.1" xmlns="http://www.w3.org/2000/svg">
  <!-- Generator: Sketch 41.2 (35397) - http://www.bohemiancoding.com/sketch -->
  <title>beta_1</title>
  <desc>Created with Sketch.</desc>
  <defs></defs>
  <g id="Page-1" stroke="none" stroke-width="1" fill="none" fill-rule="evenodd">
    <g id="beta_1" fill="#000000">
      <g id="레이어_1">
        <path d="M29.2,19.5 L26.5,19.5 L25.7,23.2 L28.4,23.2 C29,23.2 29.4,23 29.8,22.8 C30.4,22.4 31,21.6 31,20.9 C31,20.2 30.4,19.5 29.2,19.5 L29.2,19.5 Z" id="Shape"></path>
        <path d="M76.8,13 L76.8,13 C76.8,13 76,14.9 75.4,16.1 L73.7,19.6 L77.4,19.6 L77,16.1 C76.8,15.1 76.8,13 76.8,13 Z" id="Shape"></path>
        <path d="M30.2,12.8 L27.9,12.8 L27.3,16.1 L29.6,16.1 C31,16.1 31.5,15.1 31.5,14.2 C31.5,13.3 31.1,12.8 30.2,12.8 Z" id="Shape"></path>
        <path d="M90.4,0 L13.4,0 C11.9,0 10.3,1.4 10.3,2.9 L10.3,11.8 L0.6,18 L10.3,24 L10.3,32.9 C10.3,34.6 11.7,36 13.4,36 L90.4,36 C92.1,36 93.5,34.6 93.5,32.9 L93.5,2.9 C93.5,1.4 92.1,0 90.4,0 L90.4,0 Z M35.6,21.1 C35.6,24 33.7,25.9 31.1,26.7 C30.1,27.1 29.2,27.1 28.2,27.1 L20.5,27.1 L24.2,8.9 L30,8.9 C31.2,8.9 32.3,9.1 33.3,9.3 C35.2,9.9 36.2,11.4 36.2,13.2 C36.2,15 35.2,16.7 33.3,17.5 L33.3,17.5 C34.8,18.2 35.6,19.5 35.6,21.1 L35.6,21.1 Z M51.5,12.8 L44.3,12.8 L43.7,16.1 L49.3,16.1 L48.5,20 L42.9,20 L42.3,23.5 L49.7,23.5 L48.9,27.4 L36.9,27.4 L40.6,9.1 L52.2,9.1 L51.5,12.8 L51.5,12.8 Z M60.4,27.1 L55.9,27.1 L58.8,12.8 L53.2,12.8 L54,8.9 L69.7,8.9 L68.9,12.8 L63.3,12.8 L60.4,27.1 L60.4,27.1 Z M78,27.1 L77.6,23.2 L71.8,23.2 L69.9,27.1 L65,27.1 L74.7,8.9 L79.9,8.9 L82.4,27.1 L78,27.1 Z" id="Shape"></path>
      </g>
    </g>
  </g>
</svg>
